img/icons/media/movie-alt.svg

<svg xmlns="http://www.w3.org/2000/svg" viewBox="0 0 48 42"><g data-name="Layer 2"><g data-name="Photo / Audio / Video"><path data-name="Movie - Alt" d="M0 0v42h48V0zm46 10h-8V2h8zM36 20H12V2h24zm-26 0H2v-8h8zm0 2v8H2v-8zm2 0h24v18H12zm26 0h8v8h-8zm0-2v-8h8v8zM10 2v8H2V2zM2 32h8v8H2zm36 8v-8h8v8z" fill="#231f20"/></g></g></svg>

<svg xmlns="http://www.w3.org/2000/svg" viewBox="0 0 48 42"><defs><style>.cls-1{fill:#231f20;}</style></defs><title>Movie - Alt</title><g id="Layer_2" data-name="Layer 2"><g id="Icons"><g id="Photo_Audio_Video" data-name="Photo / Audio / Video"><path id="Movie_-_Alt" data-name="Movie - Alt" class="cls-1" d="M0,0V42H48V0ZM46,10H38V2h8ZM36,20H12V2H36ZM10,20H2V12h8Zm0,2v8H2V22Zm2,0H36V40H12Zm26,0h8v8H38Zm0-2V12h8v8ZM10,2v8H2V2ZM2,32h8v8H2Zm36,8V32h8v8Z"/></g></g></g></svg>
